X:594
L:1/8
M:4/4
K:C
!p! |[M:4/4][K:G] .dgea.feeeve.c"G" .uG2 G2 GABG | A2 G2 G2 Bc |"G" d2 Bc d2 g2 |"C" e2 e2"G" d4 | 
"C" e2 e2"G" d4 |"C" e2 e2"G" d4 |"C" e2 e2"G" dBGA |"A7" B2 A2"D7" AcBA |"G" G2 G2 GABG | 
 A2 G2 G2 Bc |"G" d2 Bc d2 g2 |"C" e2 e2"G" d4 |"C" e2 e2"G" d4 |"Em" e2 e2"Bm" d4 | 
"Am" G2 G2"D7" FGAF |"G" G2 D2 E2 F2 ||"G" G3 E D3 E | G2 G2 GABA |"G" G2 G2 GABA |"D7" A2 F2 D4 | 
"D7" A3 F D3 F |"D7" A2 A2 ABcB | A2 A2 ABcA |"G" B2 A2 G4 |"G" B3 c d2 d2 |"C" c2 B2"Am" A2 G2 | 
"D7" F2 D2 c2 A2 |"D7" F4 D4 |"C" E2 E2"G" D4 |"Em" E2 E2"Bm" D4 |"Am" GG"D7" FGAF |1 
 G2 D2 E2 F2 :|

